X:1
T:Title
%%score { 1 | 2 }
L:1/8
M:6/8
K:F
V:1 treble nm="Grand Piano"
V:2 bass 
V:1
 z3 z2[Q:1/4=100] F | A2 A F2 A | A2 A F2 A | c>cc d<cA |[M:5/8] [EG]-[EG]- [EG]3 |[M:1/8] [EG] | %6
[M:3/4] [EG]2 [EG] [CE]2 [EG] | [EG]2 [EG] [CE]2 [EG] | [GB]>[GB] [GB][FA] [FA][EG] | F6 | A3 .F3 | %11
 A3 F2 A | c>c cd/c/- cA | [EG]6 | [EG]3 .[CE]3 | [EG]3 [CE]2 [EG] | %16
 [GB]>[GB] [GB][FA]/[FA]/- [FA][EG] |[M:5/8] F-F- F3 |] %18
V:2
 z3 z2 [F,A,] | [F,CF]2 [F,CF] [F,A,]2 [F,CF] | [F,CF]2 [F,CF] [F,A,]2[K:treble] [F,CF] | %3
 [F,A,F]>[F,A,F][F,A,F] [B,F]<[A,CF][K:bass][F,CF] |[M:5/8] [C,C]-[C,C]- [C,C]3 |[M:1/8] [C,C] | %6
[M:3/4] [C,C]2 [C,C] [C,G,]2 [C,C] | [C,C]2 [C,C] [C,G,]2 [C,C] | %8
 [C,C]>[C,C] [C,C][C,C] [C,C][C,B,] | [F,A,]6 | [F,CF]3 .[F,A,]3 | %11
 [F,CF]3 [F,A,]2[K:treble] [F,CF] | [F,A,F]>[F,A,F] [F,A,F][B,F]/[A,CF]/- [A,CF][K:bass][F,CF] | %13
 [C,C]6 | [C,C]3 .[C,G,]3 | [C,C]3 [C,G,]2 [C,C] | [C,C]>[C,C] [C,C][C,C]/[C,C]/- [C,C][C,B,] | %17
[M:5/8] [F,A,]-[F,A,]- [F,A,]3 |] %18

